src/components/content/Icon/functional/nature.svg

<svg width="100" height="100" viewBox="0 0 100 100" fill="none" xmlns="http://www.w3.org/2000/svg">
<path d="M76.6378 24.3441C76.6508 24.2133 76.6378 24.0814 76.5996 23.9557C76.5615 23.83 76.4989 23.7131 76.4155 23.6116C76.3321 23.5102 76.2294 23.4262 76.1135 23.3645C75.9975 23.3028 75.8705 23.2646 75.7398 23.2521C75.1898 23.1981 74.7018 23.6001 74.6458 24.1501C74.1118 29.5801 72.0658 35.0601 68.7318 40.1601C62.3638 35.4781 55.6378 34.2081 49.6918 36.5961C44.0018 38.8821 39.6138 43.4421 35.6078 47.9201C34.5678 49.0821 33.5718 50.2701 32.6078 51.4181C29.6478 54.9481 26.8478 58.2821 23.0058 60.7241C22.6238 60.8461 22.3338 61.1941 22.3098 61.6201C22.2898 61.9661 22.4498 62.2821 22.7078 62.4761C24.1418 63.9741 25.7858 65.384 27.6018 66.666C28.2758 67.1421 28.9798 67.6021 29.6938 68.0381C30.4898 68.5241 31.3178 68.988 32.1518 69.416C32.3878 69.5369 32.6622 69.5591 32.9146 69.4777C33.1671 69.3964 33.3768 69.2181 33.4978 68.9821C33.7498 68.4901 33.5558 67.8881 33.0658 67.6361C32.2738 67.2301 31.4898 66.7901 30.7338 66.3281C30.0558 65.9161 29.3898 65.4781 28.7538 65.0281C27.7698 64.3341 26.8398 63.5981 25.9698 62.8341C28.0738 62.9621 30.2098 63.0801 32.3518 63.0801C34.4938 63.0801 36.5958 62.9641 38.7058 62.6281C47.4578 61.2321 56.5758 56.4001 63.7198 49.3701C65.4978 47.6221 67.1098 45.7841 68.5498 43.8821C69.6678 48.9321 69.0338 54.2601 66.7038 59.0881C64.1858 64.3081 59.9018 68.3741 54.9518 70.2421C49.9278 72.14 43.2838 71.786 36.7238 69.272C36.6011 69.225 36.4704 69.2026 36.3391 69.2061C36.2078 69.2096 36.0784 69.2389 35.9584 69.2924C35.8385 69.3459 35.7302 69.4225 35.6398 69.5178C35.5495 69.6132 35.4788 69.7254 35.4318 69.848C35.3847 69.9707 35.3623 70.1014 35.3658 70.2327C35.3693 70.3641 35.3986 70.4934 35.4521 70.6134C35.5056 70.7334 35.5822 70.8416 35.6775 70.932C35.7729 71.0224 35.8851 71.0931 36.0078 71.1401C40.0498 72.6901 44.0478 73.4701 47.7678 73.4701C50.5938 73.4701 53.2578 73.0201 55.6578 72.1141C61.0838 70.0661 65.7658 65.6341 68.5038 59.9581C71.2918 54.1801 71.8398 47.7381 70.0638 41.7601C73.7698 36.2481 76.0478 30.2781 76.6298 24.3461L76.6378 24.3441ZM62.3238 47.9441C55.4698 54.6881 46.7478 59.3201 38.3958 60.6521C34.4258 61.2841 30.3018 61.09 26.2858 60.848C29.2838 58.494 31.6578 55.6641 34.1418 52.7001C35.0958 51.5641 36.0818 50.3881 37.0998 49.2501C40.9478 44.9501 45.1498 40.5741 50.4398 38.4481C55.7318 36.3241 61.7958 37.5201 67.6018 41.8061C66.0658 43.9401 64.2998 45.9961 62.3238 47.9401V47.9441Z" fill="#0B301A"/>
</svg>

<svg xmlns="http://www.w3.org/2000/svg" width="100" height="100" fill="none" viewBox="0 0 100 100"><path fill="#0b301a" d="M76.638 24.344a.996.996 0 0 0-.898-1.092 1 1 0 0 0-1.094.898c-.534 5.43-2.58 10.91-5.914 16.01-6.368-4.682-13.094-5.952-19.04-3.564-5.69 2.286-10.078 6.846-14.084 11.324-1.04 1.162-2.036 2.35-3 3.498-2.96 3.53-5.76 6.864-9.602 9.306a.999.999 0 0 0-.298 1.752 33.6 33.6 0 0 0 4.894 4.19 38.275 38.275 0 0 0 4.55 2.75 1 1 0 0 0 .914-1.78 36 36 0 0 1-4.312-2.608 33 33 0 0 1-2.784-2.194c2.104.128 4.24.246 6.382.246s4.244-.116 6.354-.452c8.752-1.396 17.87-6.228 25.014-13.258a50 50 0 0 0 4.83-5.488c1.118 5.05.484 10.378-1.846 15.206-2.518 5.22-6.802 9.286-11.752 11.154-5.024 1.898-11.668 1.544-18.228-.97a1 1 0 0 0-.716 1.868c4.042 1.55 8.04 2.33 11.76 2.33 2.826 0 5.49-.45 7.89-1.356 5.426-2.048 10.108-6.48 12.846-12.156 2.788-5.778 3.336-12.22 1.56-18.198 3.706-5.512 5.984-11.482 6.566-17.414zm-14.314 23.6C55.47 54.688 46.748 59.32 38.396 60.652c-3.97.632-8.094.438-12.11.196 2.998-2.354 5.372-5.184 7.856-8.148.954-1.136 1.94-2.312 2.958-3.45 3.848-4.3 8.05-8.676 13.34-10.802 5.292-2.124 11.356-.928 17.162 3.358a48 48 0 0 1-5.278 6.134z"/></svg>
